public/icons/product-energy-efficiency.svg

<svg width="48" height="48" viewBox="0 0 48 48" fill="none" xmlns="http://www.w3.org/2000/svg">
<g clip-path="url(#clip0_573_1543)">
<path d="M33.6612 20.4948C33.4115 20.0539 32.9441 19.7814 32.4375 19.7814H25.4062V12.7501C25.4062 12.1181 24.9845 11.5636 24.3754 11.3949C23.7663 11.2262 23.1194 11.4846 22.7942 12.0266L14.3567 26.0891C14.096 26.5235 14.0891 27.0646 14.3388 27.5054C14.5884 27.9463 15.0559 28.2189 15.5625 28.2189H22.5937V35.2501C22.5937 35.8822 23.0155 36.4366 23.6246 36.6054C24.239 36.7754 24.8834 36.5111 25.2058 35.9737L33.6433 21.9112C33.9039 21.4767 33.9109 20.9356 33.6612 20.4948ZM25.4062 30.1731V26.8126C25.4062 26.036 24.7766 25.4064 24 25.4064H18.0462L22.5937 17.8272V21.1876C22.5937 21.9642 23.2234 22.5939 24 22.5939H29.9538L25.4062 30.1731Z" fill="#AE9F91"/>
<path d="M43.1119 38.3628C46.2677 34.1753 48 29.0971 48 24C48 18.2533 45.9102 12.7553 42.0855 8.36184L43.3875 7.26159C43.8384 6.88059 44.0033 6.25856 43.8005 5.70422C43.5977 5.14988 43.0701 4.78125 42.4798 4.78125H38.22C34.0089 1.65197 29.1021 0 24 0C18.7005 0 13.5199 1.82606 9.27066 5.16741L8.03016 4.12406C7.61981 3.77888 7.04878 3.69712 6.55791 3.91341C6.06712 4.12959 5.74209 4.60622 5.71988 5.142L5.56931 8.77387C1.97447 13.1144 0 18.5016 0 24C0 28.7712 1.44713 33.3774 4.19784 37.4022L3.15188 38.2686C2.72878 38.6189 2.5485 39.1836 2.69016 39.7143C2.83181 40.245 3.26963 40.6447 3.81103 40.7376L7.59403 41.3868C12.1064 45.6543 17.9144 48 24 48C29.8292 48 35.4076 45.847 39.8341 41.9128L41.1579 42.8555C41.6034 43.1727 42.1927 43.2029 42.6683 42.9326C43.1438 42.6624 43.4197 42.1409 43.3752 41.5957L43.1119 38.3628ZM8.40497 8.27428C9.37697 8.89303 10.1777 8.06147 10.1871 8.05744C10.1878 8.05678 10.1887 8.05603 10.1894 8.05538C14.0883 4.67325 18.9873 2.8125 24 2.8125C27.048 2.8125 30.0203 3.48497 32.7795 4.78125H32.4375C32.0099 4.78125 31.6055 4.97578 31.3387 5.30991C31.0718 5.64403 30.9714 6.08138 31.066 6.49847L31.227 7.20844C28.958 6.22856 26.5065 5.71875 24 5.71875C19.8967 5.71875 16.0169 7.05216 12.7801 9.57497C12.4362 9.843 12.2361 10.2555 12.2383 10.6915C12.2403 11.0665 12.3919 11.4226 12.6547 11.6831L8.22769 12.5507L8.40497 8.27428ZM7.24584 38.4734C7.60416 37.9819 7.61175 37.2967 7.22625 36.792C4.33875 33.0118 2.8125 28.5884 2.8125 24C2.8125 20.5555 3.69562 17.1569 5.34853 14.1009L5.34375 14.2152C5.30616 15.1239 6.12862 15.8281 7.01925 15.6534L7.82438 15.4957C6.45309 18.105 5.71875 21.0322 5.71875 24C5.71875 27.9907 6.98663 31.7848 9.3855 34.9725C9.63178 35.2998 10.0087 35.5035 10.4175 35.5301C10.6847 35.5478 10.949 35.4881 11.1798 35.3629L11.4138 39.1887C10.6122 39.0512 8.67844 38.7193 7.24584 38.4734ZM11.3914 31.2186L10.7108 31.9127C9.28031 29.5262 8.53125 26.8212 8.53125 24C8.53125 20.6263 9.59334 17.441 11.6066 14.7545L16.2498 13.8445C16.793 13.7381 17.2232 13.3229 17.3489 12.7838C17.4745 12.2447 17.2723 11.682 16.8322 11.3463L16.0373 10.74C18.4337 9.29006 21.1534 8.53125 24 8.53125C26.8516 8.53125 29.6188 9.31013 32.0388 10.7887L33.0679 15.3275C33.1806 15.8244 33.5533 16.2217 34.0421 16.3656C34.5311 16.5095 35.0595 16.3777 35.4234 16.021L36.5289 14.938C38.4336 17.566 39.4688 20.7324 39.4688 24C39.4688 26.816 38.7055 29.5564 37.2597 31.9565L31.9474 33.932C31.4521 34.1162 31.1018 34.5624 31.0407 35.0872C30.9796 35.6122 31.2178 36.1269 31.6575 36.4201L32.4512 36.9492C29.9492 38.584 27.0098 39.4688 24 39.4688C20.3365 39.4688 16.8166 38.1738 14.0251 35.8124L13.7992 32.1173C13.7652 31.5626 13.4078 31.0799 12.8873 30.8857C12.3666 30.6913 11.7804 30.8218 11.3914 31.2186ZM38.7332 39.0957C34.7089 43.024 29.4765 45.1875 24 45.1875C20.2169 45.1875 16.5521 44.1558 13.3211 42.2239C13.9512 42.0392 14.3694 41.4451 14.3294 40.7892L14.2479 39.4566C17.1497 41.2926 20.5198 42.2812 24 42.2812C28.3122 42.2812 32.5015 40.7455 35.7963 37.9568C36.5106 37.3522 36.4448 36.2315 35.6677 35.7134L35.5096 35.6079L39.9318 33.9635L40.3286 38.8363C39.8032 38.5814 39.1628 38.6763 38.7332 39.0957ZM42.7361 33.7482L42.5843 31.8839C42.5209 31.106 41.8357 30.5242 41.0481 30.5999C41.86 28.5079 42.2812 26.2746 42.2812 24C42.2812 19.5494 40.6572 15.258 37.7084 11.9163C37.1734 11.31 36.2424 11.2812 35.6698 11.8422L35.2539 12.2497C35.1983 12.0034 34.2788 7.93922 34.1982 7.58428H38.8042C38.5342 8.11003 38.6147 8.77687 39.0517 9.22181C43.0084 13.2513 45.1875 18.4996 45.1875 24C45.1875 27.4155 44.3481 30.7266 42.7361 33.7482Z" fill="#AE9F91"/>
</g>
<defs>
<clipPath id="clip0_573_1543">
<rect width="48" height="48" fill="white"/>
</clipPath>
</defs>
</svg>

<svg xmlns="http://www.w3.org/2000/svg" fill="none" viewBox="0 0 48 48"><g fill="#ae9f91" clip-path="url(#a)"><path d="M33.661 20.495a1.4 1.4 0 0 0-1.224-.714h-7.03v-7.03a1.406 1.406 0 0 0-2.613-.724l-8.437 14.062a1.406 1.406 0 0 0 1.206 2.13h7.03v7.031a1.406 1.406 0 0 0 2.613.724l8.437-14.063c.26-.434.268-.975.018-1.416m-8.255 9.678v-3.36c0-.777-.63-1.407-1.406-1.407h-5.954l4.548-7.579v3.36c0 .777.63 1.407 1.406 1.407h5.954z"/><path d="M43.112 38.363C46.268 34.175 48 29.097 48 24c0-5.747-2.09-11.245-5.914-15.638l1.302-1.1a1.406 1.406 0 0 0-.908-2.48h-4.26C34.009 1.651 29.102 0 24 0 18.7 0 13.52 1.826 9.27 5.167L8.03 4.124a1.406 1.406 0 0 0-2.31 1.018l-.15 3.632C1.973 13.114 0 18.502 0 24c0 4.771 1.447 9.377 4.198 13.402l-1.046.867a1.406 1.406 0 0 0 .659 2.469l3.783.649C12.106 45.654 17.914 48 24 48c5.83 0 11.408-2.153 15.834-6.087l1.324.943a1.406 1.406 0 0 0 2.217-1.26zM8.405 8.274c.972.619 1.773-.213 1.782-.217l.002-.002C14.09 4.673 18.987 2.813 24 2.813c3.048 0 6.02.672 8.78 1.968h-.343a1.406 1.406 0 0 0-1.371 1.717l.161.71A18.2 18.2 0 0 0 24 5.718a18.1 18.1 0 0 0-11.22 3.857 1.407 1.407 0 0 0-.125 2.108l-4.427.868zm-1.16 30.2a1.41 1.41 0 0 0-.019-1.682C4.34 33.012 2.813 28.588 2.813 24c0-3.445.883-6.843 2.536-9.9l-.005.115a1.407 1.407 0 0 0 1.675 1.438l.805-.157A18.3 18.3 0 0 0 5.72 24a18.1 18.1 0 0 0 3.667 10.972 1.406 1.406 0 0 0 1.794.39l.234 3.827zm4.146-7.255-.68.694A15.3 15.3 0 0 1 8.53 24c0-3.374 1.062-6.559 3.076-9.245l4.643-.91a1.406 1.406 0 0 0 .582-2.499l-.795-.606A15.3 15.3 0 0 1 24 8.531c2.852 0 5.619.78 8.039 2.258l1.029 4.539a1.406 1.406 0 0 0 2.355.693l1.106-1.083a15.44 15.44 0 0 1 .73 17.018l-5.312 1.976a1.406 1.406 0 0 0-.29 2.488l.794.53A15.47 15.47 0 0 1 24 39.468a15.42 15.42 0 0 1-9.975-3.657l-.226-3.695a1.406 1.406 0 0 0-2.408-.898m27.342 7.877C34.71 43.024 29.477 45.188 24 45.188a20.75 20.75 0 0 1-10.679-2.964 1.405 1.405 0 0 0 1.008-1.435l-.081-1.332A18.2 18.2 0 0 0 24 42.28c4.312 0 8.502-1.535 11.796-4.324a1.407 1.407 0 0 0-.128-2.244l-.158-.105 4.422-1.644.397 4.872a1.41 1.41 0 0 0-1.596.26m4.003-5.348-.152-1.864a1.404 1.404 0 0 0-1.536-1.284 18.25 18.25 0 0 0-3.34-18.684 1.407 1.407 0 0 0-2.038-.074l-.416.408-1.056-4.666h4.606c-.27.526-.19 1.193.248 1.638 3.956 4.03 6.136 9.278 6.136 14.778 0 3.416-.84 6.727-2.452 9.748"/></g><defs><clipPath id="a"><path fill="#fff" d="M0 0h48v48H0z"/></clipPath></defs></svg>
